dist/logos/briar.svg

<?xml version="1.0" encoding="UTF-8" standalone="no"?>
<!-- Generator: Adobe Illustrator 19.0.0, SVG Export Plug-In . SVG Version: 6.00 Build 0)  -->

<svg
   xmlns:dc="http://purl.org/dc/elements/1.1/"
   xmlns:cc="http://creativecommons.org/ns#"
   xmlns:rdf="http://www.w3.org/1999/02/22-rdf-syntax-ns#"
   xmlns:svg="http://www.w3.org/2000/svg"
   xmlns="http://www.w3.org/2000/svg"
   xmlns:inkscape="http://www.inkscape.org/namespaces/inkscape"
   version="1.1"
   id="Ebene_1"
   x="0px"
   y="0px"
   viewBox="0 0 330.00001 330.00001"
   xml:space="preserve"
   inkscape:version="0.91 r13725"
   sodipodi:docname="logo_circle.svg"
   width="330"
   height="330"><metadata
     id="metadata61"><rdf:RDF><cc:Work
         rdf:about=""><dc:format>image/svg+xml</dc:format><dc:type
           rdf:resource="http://purl.org/dc/dcmitype/StillImage" /><dc:title></dc:title></cc:Work></rdf:RDF></metadata><defs
     id="defs59" /><sodipodi:namedview
     pagecolor="#000000"
     bordercolor="#666666"
     borderopacity="1"
     objecttolerance="10"
     gridtolerance="10"
     guidetolerance="10"
     inkscape:pageopacity="0"
     inkscape:pageshadow="2"
     inkscape:window-width="1920"
     inkscape:window-height="1021"
     id="namedview57"
     showgrid="false"
     inkscape:zoom="1.4333435"
     inkscape:cx="137.64067"
     inkscape:cy="223.06028"
     inkscape:window-x="1440"
     inkscape:window-y="23"
     inkscape:window-maximized="0"
     inkscape:current-layer="Ebene_1" /><style
     type="text/css"
     id="style3">
	.st0{fill:#FFFFFF;}
	.st1{display:none;fill:#87C214;}
	.st2{fill:#87C214;}
	.st3{display:none;fill:#FFFFFF;}
	.st4{fill:#95D220;}
	.st5{display:none;fill:#95D220;}
</style><circle
     style="fill:#ffffff"
     id="circle7"
     cy="165"
     cx="165"
     class="st0"
     r="165" /><g
     id="g4214"
     transform="translate(0.2999939,1.2000061)"><g
       id="g9"><g
         id="g11"><rect
           x="94"
           y="93.800003"
           class="st1"
           width="43.700001"
           height="43.700001"
           id="rect13"
           style="display:none;fill:#87c214" /><path
           class="st2"
           d="M 94,144.5 94,264 c 0,9.7 7.9,17.7 17.7,17.7 l 8.3,0 c 9.7,0 17.7,-8 17.7,-17.7 l 0,-119.5 -43.7,0 z"
           id="path15"
           inkscape:connector-curvature="0"
           style="fill:#87c214" /><path
           class="st2"
           d="m 137.7,86.8 0,-22.5 c 0,-9.7 -8,-17.7 -17.7,-17.7 l -8.3,0 C 102,46.6 94,54.6 94,64.3 l 0,22.5 43.7,0 z"
           id="path17"
           inkscape:connector-curvature="0"
           style="fill:#87c214" /></g><path
         class="st3"
         d="m 120,46.7 c 9.7,0 17.7,8 17.7,17.7 l 0,199.6 c 0,9.7 -8,17.7 -17.7,17.7 l -8.3,0 C 102,281.7 94,273.7 94,264 L 94,64.3 c 0,-9.7 7.9,-17.7 17.7,-17.7 l 8.3,0 m 0,-6.9 -8.3,0 C 98.1,39.7 87,50.7 87,64.3 L 87,264 c 0,13.6 11.1,24.7 24.7,24.7 l 8.3,0 c 13.6,0 24.7,-11.1 24.7,-24.7 l 0,-199.7 C 144.7,50.7 133.6,39.7 120,39.7 l 0,0 z"
         id="path19"
         inkscape:connector-curvature="0"
         style="display:none;fill:#ffffff" /></g><g
       id="g21"><g
         id="g23"><path
           class="st2"
           d="m 234.7,183.8 0,-119.5 c 0,-9.7 -7.9,-17.7 -17.7,-17.7 l -8.3,0 c -9.7,0 -17.7,8 -17.7,17.7 l 0,119.5 43.7,0 z"
           id="path25"
           inkscape:connector-curvature="0"
           style="fill:#87c214" /><rect
           x="191"
           y="190.8"
           class="st1"
           width="43.700001"
           height="43.700001"
           id="rect27"
           style="display:none;fill:#87c214" /><path
           class="st2"
           d="m 191,241.5 0,22.5 c 0,9.7 8,17.7 17.7,17.7 l 8.3,0 c 9.7,0 17.7,-8 17.7,-17.7 l 0,-22.5 -43.7,0 z"
           id="path29"
           inkscape:connector-curvature="0"
           style="fill:#87c214" /></g><path
         class="st3"
         d="m 217,46.7 c 9.7,0 17.7,8 17.7,17.7 l 0,199.6 c 0,9.7 -7.9,17.7 -17.7,17.7 l -8.3,0 c -9.7,0 -17.7,-8 -17.7,-17.7 l 0,-199.7 c 0,-9.7 8,-17.7 17.7,-17.7 l 8.3,0 m 0,-6.9 -8.3,0 C 195.1,39.7 184,50.8 184,64.4 l 0,199.6 c 0,13.6 11.1,24.7 24.7,24.7 l 8.3,0 c 13.6,0 24.7,-11.1 24.7,-24.7 l 0,-199.7 C 241.7,50.7 230.6,39.7 217,39.7 l 0,0 z"
         id="path31"
         inkscape:connector-curvature="0"
         style="display:none;fill:#ffffff" /></g><g
       id="g33"><g
         id="g35"><path
           class="st4"
           d="m 87,190.8 -22.5,0 c -9.7,0 -17.7,7.9 -17.7,17.7 l 0,8.3 c 0,9.7 7.9,17.7 17.7,17.7 l 22.5,0 0,-43.7 z"
           id="path37"
           inkscape:connector-curvature="0"
           style="fill:#95d220" /><rect
           x="94"
           y="190.8"
           class="st5"
           width="43.700001"
           height="43.700001"
           id="rect39"
           style="display:none;fill:#95d220" /><path
           class="st4"
           d="m 264.2,190.8 -119.5,0 0,43.7 119.5,0 c 9.7,0 17.7,-8 17.7,-17.7 l 0,-8.3 c -0.1,-9.7 -8,-17.7 -17.7,-17.7 z"
           id="path41"
           inkscape:connector-curvature="0"
           style="fill:#95d220" /></g><path
         class="st3"
         d="m 264.2,190.8 c 9.7,0 17.7,7.9 17.7,17.7 l 0,8.3 c 0,9.7 -8,17.7 -17.7,17.7 l -199.7,0 c -9.7,0 -17.7,-8 -17.7,-17.7 l 0,-8.3 c 0,-9.7 7.9,-17.7 17.7,-17.7 l 199.7,0 m 0,-7 -199.7,0 c -13.6,0 -24.7,11.1 -24.7,24.7 l 0,8.3 c 0,13.6 11.1,24.7 24.7,24.7 l 199.7,0 c 13.6,0 24.7,-11.1 24.7,-24.7 l 0,-8.3 c -0.1,-13.6 -11.1,-24.7 -24.7,-24.7 l 0,0 z"
         id="path43"
         inkscape:connector-curvature="0"
         style="display:none;fill:#ffffff" /></g><g
       id="g45"><g
         id="g47"><rect
           x="191"
           y="93.800003"
           class="st5"
           width="43.700001"
           height="43.700001"
           id="rect49"
           style="display:none;fill:#95d220" /><path
           class="st4"
           d="m 184,93.8 -119.5,0 c -9.7,0 -17.7,7.9 -17.7,17.7 l 0,8.3 c 0,9.7 7.9,17.7 17.7,17.7 l 119.5,0 0,-43.7 z"
           id="path51"
           inkscape:connector-curvature="0"
           style="fill:#95d220" /><path
           class="st4"
           d="m 264.2,93.8 -22.5,0 0,43.7 22.5,0 c 9.7,0 17.7,-7.9 17.7,-17.7 l 0,-8.3 c -0.1,-9.7 -8,-17.7 -17.7,-17.7 z"
           id="path53"
           inkscape:connector-curvature="0"
           style="fill:#95d220" /></g><path
         class="st3"
         d="m 264.2,93.8 c 9.7,0 17.7,7.9 17.7,17.7 l 0,8.3 c 0,9.7 -8,17.7 -17.7,17.7 l -199.7,0 c -9.7,0 -17.7,-7.9 -17.7,-17.7 l 0,-8.3 c 0,-9.7 7.9,-17.7 17.7,-17.7 l 199.7,0 m 0,-7 -199.7,0 c -13.6,0 -24.7,11.1 -24.7,24.7 l 0,8.3 c 0,13.6 11.1,24.7 24.7,24.7 l 199.7,0 c 13.6,0 24.7,-11.1 24.7,-24.7 l 0,-8.3 C 288.8,97.9 277.8,86.8 264.2,86.8 l 0,0 z"
         id="path55"
         inkscape:connector-curvature="0"
         style="display:none;fill:#ffffff" /></g></g></svg>

<svg xmlns="http://www.w3.org/2000/svg" viewBox="0 0 330 330" width="330" height="330" aria-label="Briar logo">
  <circle cx="165" cy="165" r="165" fill="#FFFFFF" />
  <g transform="translate(0.3 1.2)">
    <path d="M94 144.5V264c0 9.7 7.9 17.7 17.7 17.7h8.3c9.7 0 17.7-8 17.7-17.7V144.5H94Z" fill="#87C214" />
    <path d="M137.7 86.8V64.3c0-9.7-8-17.7-17.7-17.7h-8.3C102 46.6 94 54.6 94 64.3v22.5h43.7Z" fill="#87C214" />
    <path d="M234.7 183.8V64.3c0-9.7-7.9-17.7-17.7-17.7h-8.3c-9.7 0-17.7 8-17.7 17.7v119.5h43.7Z" fill="#87C214" />
    <path d="M191 241.5V264c0 9.7 8 17.7 17.7 17.7h8.3c9.7 0 17.7-8 17.7-17.7v-22.5H191Z" fill="#87C214" />
    <path d="M87 190.8H64.5c-9.7 0-17.7 7.9-17.7 17.7v8.3c0 9.7 7.9 17.7 17.7 17.7H87v-43.7Z" fill="#95D220" />
    <path d="M264.2 190.8H144.7v43.7h119.5c9.7 0 17.7-8 17.7-17.7v-8.3c-.1-9.7-8-17.7-17.7-17.7Z" fill="#95D220" />
    <path d="M184 93.8H64.5c-9.7 0-17.7 7.9-17.7 17.7v8.3c0 9.7 7.9 17.7 17.7 17.7H184V93.8Z" fill="#95D220" />
    <path d="M264.2 93.8h-22.5v43.7h22.5c9.7 0 17.7-7.9 17.7-17.7v-8.3c-.1-9.7-8-17.7-17.7-17.7Z" fill="#95D220" />
  </g>
</svg>
